X:1
T:Title
%%score { ( 1 3 ) | ( 2 4 ) }
L:1/8
Q:1/4=90
M:6/8
K:Bb
V:1 treble nm="Grand Piano"
V:3 treble 
V:2 bass 
V:4 bass 
V:1
 [DF]2 [_D=E] [=DF]2 [FB] | [GB][FA][EG] [EG]2 [DF] | [DF]2 [DF] B2 B | z3 c3 | %4
w: E.~M.~Herndon * * *||||
 [DB]2 [DB] [FA]2 [EG] | [DF][_D=E][=DF] [_EG]2 [DF] | [FB]2 [FA] Gdc | B2 [EA] [DB]3 | c2 A AGF | %9
w: |||||
 FBc d2 B | B2 G [DF]2 [Fd] | [=Ed]2 [Ec] [_Ec]3 | [DB]2 [DB] [FA]2 [EG] | %13
w: ||||
 [DF][_D=E][=DF] [_EG]2 [DF] | [FB]2 [FA] Gdc | B2 [EA] [DB]3 |] %16
w: |||
V:2
 [B,,B,]2 [B,,B,] [B,,B,]2 [D,B,] | [E,B,]2 [E,B,] [B,,B,]2 [B,,B,] | %2
 [B,,B,]2 [B,,B,] [B,D]2 [B,D] | [G,B,=E]2 [G,CE] .[F,A,F]3 | [B,,B,]2 [B,,B,] [B,,B,]2 [B,,B,] | %5
 [B,,B,]2 [B,,B,] [B,,B,]2 [B,,B,] | [D,B,]2 [D,B,] [E,B,E]2 [E,G,E] | [F,D]2 [F,,F,] [B,,F,]3 | %8
 z3 .C3 | [B,D]2 [B,E] [B,F]2[K:bass] [B,D] | [E,G,E]2 [E,B,E] [B,,B,]2 [B,,B,] | %11
 [C,B,]2 [C,B,] [F,A,]3 | [B,,B,]2 [B,,B,] [B,,B,]2 [B,,B,] | [B,,B,]2 [B,,B,] [B,,B,]2 [B,,B,] | %14
 [D,B,]2 [D,B,] [E,B,E]2 [E,G,E] | [F,D]2 [F,,F,] [B,,F,]3 |] %16
V:3
 x6 | x6 | x6 | dcB z2 E | x6 | x6 | x6 | x6 | x6 | x6 | x6 | x6 | x6 | x6 | x6 | x6 |] %16
V:4
 x6 | x6 | x6 | x6 | x6 | x6 | x6 | x6 | [F,A,E]2 [F,CE] [F,E]-[F,B,E][F,A,E] | x5[K:bass] x | x6 | %11
 x6 | x6 | x6 | x6 | x6 |] %16

